assets/icons/bulb.svg

<svg xmlns="http://www.w3.org/2000/svg" viewBox="0 0 55 55"><path d="M34 34.05c-2 5.56-1.72 8.88-6 8.88s-4-3.34-6-8.93c-1.34-3.73-5-8-5-12a11 11 0 0122 0c0 4-3.68 8.3-5 12.05zm-6 6.88c1.18 0 1.63-.12 2.24-1.77l-4.24.53a1.74 1.74 0 002 1.24zm-3-4.07c.23.77.42 1.37.59 1.88l5-.62c.11-.35.23-.74.36-1.18.08-.28.18-.59.27-.88l-6.22.77v.03zm-.3-1l6.8-.85c.1-.34.22-.69.35-1.05h-7.73c.23.68.43 1.31.62 1.91zM28 13.07a9 9 0 00-9 9c0 2 1.35 4.43 2.65 6.76.59 1 1.19 2.12 1.69 3.2h9.33c.5-1.07 1.09-2.14 1.67-3.19C35.65 26.45 37 24 37 22a9 9 0 00-9-8.93zm0 4a5 5 0 00-5 5 .5.5 0 01-1 0 6 6 0 016-6 .5.5 0 01.5.5.5.5 0 01-.5.48z" fill="#666d89" fill-rule="evenodd"/></svg>

<svg id="Star" xmlns="http://www.w3.org/2000/svg" viewBox="0 0 55 55"><defs><style>.cls-1{fill:#666d89;fill-rule:evenodd;}</style></defs><title>bulb</title><path id="bulb" class="cls-1" d="M34,34.05c-2,5.56-1.72,8.88-6,8.88S24,39.59,22,34c-1.34-3.73-5-8-5-12a11,11,0,0,1,22,0C39,26,35.32,30.3,34,34.05Zm-6,6.88c1.18,0,1.63-.12,2.24-1.77L26,39.69A1.74,1.74,0,0,0,28,40.93Zm-3-4.07c.23.77.42,1.37.59,1.88l5-.62c.11-.35.23-.74.36-1.18.08-.28.18-.59.27-.88L25,36.83A0,0,0,0,0,25,36.86Zm-.3-1,6.8-.85c.1-.34.22-.69.35-1.05H24.12C24.35,34.64,24.55,35.27,24.74,35.87ZM28,13.07a9,9,0,0,0-9,9c0,2,1.35,4.43,2.65,6.76.59,1,1.19,2.12,1.69,3.2h9.33c.5-1.07,1.09-2.14,1.67-3.19C35.65,26.45,37,24,37,22A9,9,0,0,0,28,13.07Zm0,4a5,5,0,0,0-5,5,.5.5,0,0,1-1,0,6,6,0,0,1,6-6,.5.5,0,0,1,.5.5A.5.5,0,0,1,28,17.05Z"/></svg>
